; generated by PrusaSlicer 2.4.0+arm64 on 2022-03-24 at 14:37:30 UTC

; 

; external perimeters extrusion width = 0.60mm
; perimeters extrusion width = 0.50mm
; infill extrusion width = 0.50mm
; solid infill extrusion width = 0.50mm
; top infill extrusion width = 0.45mm
; first layer extrusion width = 0.42mm

; external perimeters extrusion width = 0.60mm
; perimeters extrusion width = 0.50mm
; infill extrusion width = 0.50mm
; solid infill extrusion width = 0.50mm
; top infill extrusion width = 0.45mm
; first layer extrusion width = 0.42mm

M73 P0 R136
M73 Q0 S142
M201 X1000 Y1000 Z200 E8000 ; sets maximum accelerations, mm/sec^2
M203 X200 Y200 Z12 E120 ; sets maximum feedrates, mm/sec
M204 P1250 R1250 T1250 ; sets acceleration (P, T) and retract acceleration (R), mm/sec^2
M205 X8.00 Y8.00 Z0.40 E4.50 ; sets the jerk limits, mm/sec
M205 S0 T0 ; sets the minimum extruding and travel feed rate, mm/sec
M107
;TYPE:Custom
M862.3 P "MK3SMMU2S" ; printer model check
M862.1 P0.4 ; nozzle diameter check
M115 U3.10.1 ; tell printer latest fw version
G90 ; use absolute coordinates
M83 ; extruder relative mode
M104 S215 ; set extruder temp
M140 S60 ; set bed temp
M190 S60 ; wait for bed temp
M109 S215 ; wait for extruder temp
G28 W ; home all without mesh bed level
G80 ; mesh bed leveling
G1 Z0.2 F720
G1 Y-3 F1000 ; go outside print area
G92 E0
G1 X60 E9 F1000 ; intro line
G1 X100 E12.5 F1000 ; intro line
G92 E0
M221 S100

; Don't change E values below. Excessive value can damage the printer.

M907 E538 ; set extruder motor current
G21 ; set units to millimeters
G90 ; use absolute coordinates
M83 ; use relative distances for extrusion
T1
M900 K0.05 ; Filament gcode LA 1.5
M900 K30 ; Filament gcode LA 1.0
G1 Z.2 F10800
M107
;LAYER_CHANGE
;Z:0.2
;HEIGHT:0.2
;BEFORE_LAYER_CHANGE
G92 E0.0
;0.2


G1 E-.8
G1 Z.6 F10800
G1 Z.2
;AFTER_LAYER_CHANGE
;0.2
G1 Z.6
G1 X227.614 Y98.861
G1 Z.2
M73 Q0 S141
G1 E.8 F0
;HEIGHT:0.2
;TYPE:Wipe tower
;WIDTH:0.5
G1  X227.614 Y107.921  E0.3443 F1200
G1  X168.614  E2.2424
G1  Y98.861  E0.3443
G1  X227.614  E2.2424
G1  Y107.921 
G1  X226.614 
;--------------------
; CP EMPTY GRID START
; layer #157
G1  Y107.421  E0.0190
G1  X169.114  E2.1854
G1  Y106.917  E0.0191
G1  X227.114  E2.2044
G1  Y106.414  E0.0191
G1  X169.114  E2.2044
G1  Y105.910  E0.0191
G1  X227.114  E2.2044
G1  Y105.406  E0.0191
G1  X169.114  E2.2044
G1  Y104.902  E0.0191
G1  X227.114  E2.2044
G1  Y104.399  E0.0191
G1  X169.114  E2.2044
G1  Y103.895  E0.0191
G1  X227.114  E2.2044
G1  Y103.391  E0.0191
G1  X169.114  E2.2044
G1  Y102.887  E0.0191
G1  X227.114  E2.2044
G1  Y102.384  E0.0191
G1  X169.114  E2.2044
G1  Y101.880  E0.0191
G1  X227.114  E2.2044
G1  Y101.376  E0.0191
M73 P0 R135
G1  X169.114  E2.2044
G1  Y100.872  E0.0191
G1  X227.114  E2.2044
G1  Y100.369  E0.0191
G1  X169.114  E2.2044
G1  Y99.865  E0.0191
G1  X227.114  E2.2044
G1  Y99.361  E0.0191
G1  X169.114  E2.2044
G1  Y98.861  E0.0190
; CP EMPTY GRID END
;------------------






G1  X168.114 
G1  Y98.361 
G1  X228.114  E2.2804
G1  Y108.421  E0.3823
M73 Q0 S140
G1  X168.114  E2.2804
G1  Y98.361  E0.3823
G1  X167.657 
G1  Y97.904 
G1  X228.571  E2.3151
G1  Y108.878  E0.4171
G1  X167.657  E2.3151
G1  Y97.904  E0.4171
G1  X167.200 
G1  Y97.447 
G1  X229.028  E2.3499
G1  Y109.335  E0.4518
M73 P1 R135
G1  X167.200  E2.3499
G1  Y97.447  E0.4518
M73 Q1 S140
G1  X166.743 
G1  Y96.990 
G1  X229.485  E2.3846
G1  Y109.792  E0.4866
G1  X166.743  E2.3846
G1  Y96.990  E0.4866
G1  X166.286 
G1  Y96.533 
G1  X229.942  E2.4194
G1  Y110.249  E0.5213
G1  X166.286  E2.4194
G1  Y96.533  E0.5213

;WIPE_START
G1 F8640
G1 X229.942 Y96.533 E0
;WIPE_END
G1 E-.8 F0
G1 Z.6 F10800
G1 X166.285 Y93.927
G1 Z.2
G1 E.8 F0
M204 S1000
;TYPE:Skirt/Brim
;WIDTH:0.42
;HEIGHT:0.2
G1 F1200
G1 X230.171 Y93.927 E2.00308
G1 X231.478 Y94.319 E.04278
G1 X232.354 Y95.365 E.04278
G1 X232.548 Y96.304 E.03008
G1 X232.548 Y110.478 E.44441
G1 X232.156 Y111.785 E.04278
G1 X231.11 Y112.661 E.04278
G1 X230.239 Y112.854 E.02798
G1 X124.892 Y115.877 E3.30444
G1 X99.827 Y114.242 E.78758
M73 P1 R134
G1 X98.663 Y113.84 E.03861
G1 X98.215 Y113.565 E.01649
G1 X97.636 Y113.065 E.02398
G1 X97.148 Y112.456 E.02446
G1 X96.842 Y111.879 E.02049
G1 X96.65 Y111.353 E.01754
G1 X96.511 Y110.639 E.02283
G1 X96.481 Y99.859 E.338
G1 X96.576 Y98.944 E.02885
G1 X97.026 Y97.746 E.04012
G1 X97.448 Y97.138 E.0232
G1 X97.827 Y96.744 E.01714
G1 X98.328 Y96.352 E.01993
G1 X98.878 Y96.048 E.01971
G1 X99.584 Y95.802 E.02347
G1 X100.17 Y95.699 E.01865
G1 X124.766 Y94.119 E.77277
G1 X166.225 Y93.927 E1.29994
; printing object 3DBenchy_-_Dualprint_-_Gunwale_Deck_Plate_Wheel_Frames_Roof_Chimney_top_-_3DBenchy.com id:0 copy 0
;WIPE_START
G1 F8640
G1 X230.171 Y93.927 E0
G1 X231.478 Y94.319 E0
G1 X232.354 Y95.365 E0
G1 X232.548 Y96.304 E0
G1 X232.548 Y110.478 E0
G1 X232.156 Y111.785 E0
G1 X231.11 Y112.661 E0
G1 X230.239 Y112.854 E0
G1 X124.892 Y115.877 E0
G1 X99.827 Y114.242 E0
G1 X98.663 Y113.84 E0
G1 X98.215 Y113.565 E0
G1 X97.636 Y113.065 E0
G1 X97.148 Y112.456 E0
G1 X96.842 Y111.879 E0
G1 X96.65 Y111.353 E0
G1 X96.511 Y110.639 E0
G1 X96.481 Y99.859 E0
G1 X96.576 Y98.944 E0
G1 X97.026 Y97.746 E0
G1 X97.448 Y97.138 E0
G1 X97.827 Y96.744 E0
G1 X98.328 Y96.352 E0
G1 X98.878 Y96.048 E0
G1 X99.584 Y95.802 E0
G1 X100.17 Y95.699 E0
G1 X124.766 Y94.119 E0
G1 X166.225 Y93.927 E0
;WIPE_END
G1 E-.8 F0
G1 Z.6 F10800
G1 X125.032 Y104.113
G1 Z.2
G1 E.8 F0
;TYPE:External perimeter
G1 F1200
G1 X125.176 Y104.183 E.00502
G1 X125.333 Y104.096 E.00562
G1 X125.392 Y103.96 E.00462
G1 X125.458 Y103.666 E.00946
G1 X125.581 Y103.452 E.00772
G1 X125.851 Y103.206 E.01146
G1 X126.104 Y103.09 E.00874
G1 X126.367 Y103.094 E.00825
G1 X126.684 Y103.251 E.01109
G1 X126.905 Y103.497 E.01036
G1 X126.987 Y103.847 E.01126
G1 X126.945 Y104.272 E.01339
G1 X126.693 Y104.77 E.01752
G1 X126.263 Y105.487 E.02619
G1 X126.193 Y105.659 E.00583
G1 X126.187 Y105.717 E.00185
G1 X126.229 Y105.854 E.00449
G1 X126.942 Y107.046 E.04354
G1 X127.065 Y107.329 E.00967
G1 X127.101 Y107.724 E.01246
G1 X127.028 Y108.013 E.00934
G1 X126.87 Y108.253 E.00901
G1 X126.64 Y108.413 E.00878
G1 X126.309 Y108.504 E.01077
G1 X126.158 Y108.502 E.00476
G1 X125.987 Y108.474 E.00542
G1 X125.735 Y108.347 E.00884
G1 X125.562 Y108.151 E.00821
G1 X125.473 Y107.99 E.00576
G1 X125.357 Y107.646 E.01139
G1 X125.338 Y107.466 E.00565
G1 X125.305 Y107.406 E.00216
G1 X125.098 Y107.325 E.00696
G1 X125.088 Y107.302 E.00079
G1 X124.944 Y107.363 E.0049
G1 X124.895 Y107.456 E.00332
G1 X124.886 Y107.562 E.00332
G1 X124.78 Y107.884 E.01065
G1 X124.667 Y108.095 E.00748
G1 X124.486 Y108.309 E.00879
G1 X124.253 Y108.438 E.00835
G1 X124.039 Y108.449 E.00672
G1 X123.866 Y108.42 E.00548
G1 X123.644 Y108.312 E.00775
G1 X123.496 Y108.183 E.00616
G1 X123.398 Y108.023 E.00587
G1 X123.356 Y107.856 E.00541
G1 X123.358 Y107.617 E.00748
G1 X123.425 Y107.264 E.01127
G1 X123.524 Y106.925 E.01108
G1 X123.845 Y106.23 E.024
G1 X124.172 Y105.761 E.01793
G1 X123.942 Y105.417 E.01298
G1 X123.422 Y104.491 E.03329
G1 X123.3 Y104.198 E.00997
G1 X123.253 Y103.946 E.00802
G1 X123.253 Y103.725 E.00695
G1 X123.393 Y103.428 E.01028
G1 X123.618 Y103.222 E.00957
G1 X123.881 Y103.106 E.00901
G1 X124.147 Y103.07 E.00842
G1 X124.343 Y103.117 E.00632
G1 X124.56 Y103.232 E.00771
G1 X124.71 Y103.372 E.00644
G1 X124.896 Y103.704 E.01192
G1 X124.948 Y103.931 E.0073
G1 X125.007 Y104.058 E.00438
G1 X125.184 Y104.061 F10800
;WIPE_START
G1 F8640
G1 X125.176 Y104.183 E0
G1 X125.333 Y104.096 E0
G1 X125.392 Y103.96 E0
G1 X125.458 Y103.666 E0
G1 X125.581 Y103.452 E0
G1 X125.851 Y103.206 E0
G1 X126.104 Y103.09 E0
G1 X126.367 Y103.094 E0
G1 X126.684 Y103.251 E0
G1 X126.905 Y103.497 E0
G1 X126.987 Y103.847 E0
G1 X126.945 Y104.272 E0
G1 X126.693 Y104.77 E0
G1 X126.263 Y105.487 E0
G1 X126.193 Y105.659 E0
G1 X126.187 Y105.717 E0
G1 X126.229 Y105.854 E0
G1 X126.942 Y107.046 E0
G1 X127.065 Y107.329 E0
G1 X127.101 Y107.724 E0
G1 X127.028 Y108.013 E0
G1 X126.87 Y108.253 E0
G1 X126.64 Y108.413 E0
G1 X126.309 Y108.504 E0
G1 X126.158 Y108.502 E0
G1 X125.987 Y108.474 E0
G1 X125.735 Y108.347 E0
G1 X125.562 Y108.151 E0
G1 X125.473 Y107.99 E0
G1 X125.357 Y107.646 E0
G1 X125.338 Y107.466 E0
G1 X125.305 Y107.406 E0
G1 X125.098 Y107.325 E0
G1 X125.088 Y107.302 E0
G1 X124.944 Y107.363 E0
G1 X124.895 Y107.456 E0
G1 X124.886 Y107.562 E0
G1 X124.78 Y107.884 E0
G1 X124.667 Y108.095 E0
G1 X124.486 Y108.309 E0
G1 X124.253 Y108.438 E0
G1 X124.039 Y108.449 E0
G1 X123.866 Y108.42 E0
G1 X123.644 Y108.312 E0
G1 X123.496 Y108.183 E0
G1 X123.398 Y108.023 E0
G1 X123.356 Y107.856 E0
G1 X123.358 Y107.617 E0
G1 X123.425 Y107.264 E0
G1 X123.524 Y106.925 E0
G1 X123.845 Y106.23 E0
G1 X124.172 Y105.761 E0
G1 X123.942 Y105.417 E0
G1 X123.422 Y104.491 E0
G1 X123.3 Y104.198 E0
G1 X123.253 Y103.946 E0
G1 X123.253 Y103.725 E0
G1 X123.393 Y103.428 E0
G1 X123.618 Y103.222 E0
G1 X123.881 Y103.106 E0
G1 X124.147 Y103.07 E0
G1 X124.343 Y103.117 E0
G1 X124.56 Y103.232 E0
G1 X124.71 Y103.372 E0
G1 X124.896 Y103.704 E0
G1 X124.948 Y103.931 E0
G1 X125.007 Y104.058 E0
;WIPE_END
G1 E-.8 F0
G1 Z.6 F10800
G1 X122.614 Y106.248
G1 Z.2
G1 E.8 F0
G1 F1200
G1 X122.86 Y106.532 E.01177
G1 X122.965 Y106.755 E.00773
G1 X123.026 Y107.008 E.00815
G1 X122.992 Y107.526 E.01628
G1 X122.919 Y107.928 E.01281
G1 X122.838 Y108.14 E.00713
G1 X122.73 Y108.321 E.0066
G1 X122.51 Y108.525 E.00941
G1 X122.288 Y108.66 E.00814
G1 X122.039 Y108.742 E.00822
G1 X121.679 Y108.769 E.01134
G1 X121.423 Y108.733 E.00809
G1 X121.185 Y108.643 E.00797
G1 X120.97 Y108.516 E.00784
G1 X120.839 Y108.403 E.00542
G1 X120.702 Y108.243 E.00662
G1 X120.58 Y108.02 E.00798
G1 X120.495 Y107.654 E.01178
G1 X120.594 Y107.034 E.01968
G1 X120.722 Y106.75 E.00974
G1 X120.844 Y106.575 E.0067
G1 X121.186 Y106.215 E.0156
G1 X121.308 Y106.133 E.0046
G1 X121.522 Y106.038 E.00733
G1 X121.774 Y105.989 E.00804
G1 X122.017 Y105.992 E.00764
G1 X122.164 Y106.021 E.00469
G1 X122.393 Y106.112 E.00771
G1 X122.563 Y106.217 E.00628
G1 X122.971 Y106.13 F10800
;WIPE_START
G1 F8640
G1 X122.86 Y106.532 E0
G1 X122.965 Y106.755 E0
G1 X123.026 Y107.008 E0
G1 X122.992 Y107.526 E0
G1 X122.919 Y107.928 E0
G1 X122.838 Y108.14 E0
G1 X122.73 Y108.321 E0
G1 X122.51 Y108.525 E0
G1 X122.288 Y108.66 E0
G1 X122.039 Y108.742 E0
G1 X121.679 Y108.769 E0
G1 X121.423 Y108.733 E0
G1 X121.185 Y108.643 E0
G1 X120.97 Y108.516 E0
G1 X120.839 Y108.403 E0
G1 X120.702 Y108.243 E0
G1 X120.58 Y108.02 E0
G1 X120.495 Y107.654 E0
G1 X120.594 Y107.034 E0
G1 X120.722 Y106.75 E0
G1 X120.844 Y106.575 E0
G1 X121.186 Y106.215 E0
G1 X121.308 Y106.133 E0
G1 X121.522 Y106.038 E0
G1 X121.774 Y105.989 E0
G1 X122.017 Y105.992 E0
G1 X122.164 Y106.021 E0
G1 X122.393 Y106.112 E0
G1 X122.563 Y106.217 E0
;WIPE_END
G1 E-.8 F0
G1 Z.6 F10800
G1 X115.697 Y102.229
G1 Z.2
G1 E.8 F0
G1 F1200
G1 X115.845 Y101.959 E.00966
G1 X116.06 Y101.787 E.00863
G1 X116.383 Y101.657 E.01092
G1 X116.723 Y101.62 E.01072
G1 X117.146 Y101.639 E.01328
G1 X117.768 Y101.63 E.0195
G1 X118.512 Y101.673 E.02335
G1 X118.958 Y101.747 E.01417
G1 X119.323 Y101.85 E.01189
G1 X119.636 Y101.994 E.0108
G1 X119.834 Y102.12 E.00737
G1 X120.165 Y102.4 E.0136
G1 X120.481 Y102.803 E.01605
G1 X120.732 Y103.274 E.01675
G1 X120.834 Y103.546 E.00908
G1 X120.908 Y103.821 E.00893
G1 X120.995 Y104.295 E.01514
G1 X121.022 Y104.989 E.02178
G1 X120.99 Y105.352 E.0114
G1 X120.95 Y105.548 E.00628
G1 X120.833 Y105.884 E.01117
G1 X120.688 Y106.15 E.0095
G1 X120.442 Y106.757 E.02052
G1 X120.182 Y107.15 E.01477
G1 X120.015 Y107.465 E.01119
G1 X119.846 Y107.683 E.00866
G1 X119.533 Y107.941 E.01271
G1 X119.184 Y108.105 E.01206
G1 X118.696 Y108.224 E.01576
G1 X118.383 Y108.265 E.00992
G1 X117.851 Y108.291 E.01668
M73 Q1 S139
G1 X117.139 Y108.277 E.02235
G1 X116.681 Y108.321 E.01442
G1 X116.416 Y108.321 E.00832
G1 X116.167 Y108.239 E.00822
G1 X116.001 Y108.122 E.00634
G1 X115.852 Y107.926 E.00773
G1 X115.739 Y107.663 E.009
G1 X115.694 Y107.26 E.01269
G1 X115.717 Y106.658 E.01889
G1 X115.719 Y103.164 E.10954
G1 X115.681 Y102.593 E.01796
G1 X115.695 Y102.289 E.00954
G1 X115.494 Y101.998 F10800
;WIPE_START
G1 F8640
G1 X115.845 Y101.959 E0
G1 X116.06 Y101.787 E0
G1 X116.383 Y101.657 E0
G1 X116.723 Y101.62 E0
G1 X117.146 Y101.639 E0
G1 X117.768 Y101.63 E0
G1 X118.512 Y101.673 E0
G1 X118.958 Y101.747 E0
G1 X119.323 Y101.85 E0
G1 X119.636 Y101.994 E0
G1 X119.834 Y102.12 E0
G1 X120.165 Y102.4 E0
G1 X120.481 Y102.803 E0
G1 X120.732 Y103.274 E0
G1 X120.834 Y103.546 E0
G1 X120.908 Y103.821 E0
G1 X120.995 Y104.295 E0
G1 X121.022 Y104.989 E0
G1 X120.99 Y105.352 E0
G1 X120.95 Y105.548 E0
G1 X120.833 Y105.884 E0
G1 X120.688 Y106.15 E0
G1 X120.442 Y106.757 E0
G1 X120.182 Y107.15 E0
G1 X120.015 Y107.465 E0
G1 X119.846 Y107.683 E0
G1 X119.533 Y107.941 E0
G1 X119.184 Y108.105 E0
G1 X118.696 Y108.224 E0
G1 X118.383 Y108.265 E0
G1 X117.851 Y108.291 E0
G1 X117.139 Y108.277 E0
G1 X116.681 Y108.321 E0
G1 X116.416 Y108.321 E0
G1 X116.167 Y108.239 E0
G1 X116.001 Y108.122 E0
G1 X115.852 Y107.926 E0
G1 X115.739 Y107.663 E0
G1 X115.694 Y107.26 E0
G1 X115.717 Y106.658 E0
G1 X115.719 Y103.164 E0
G1 X115.681 Y102.593 E0
G1 X115.695 Y102.289 E0
;WIPE_END
G1 E-.8 F0
G1 Z.6 F10800
G1 X114.018 Y104.497
G1 Z.2
G1 E.8 F0
G1 F1200
G1 X113.994 Y104.508 E.00081
G1 X114.299 Y104.646 E.01049
G1 X114.479 Y104.82 E.00785
G1 X114.674 Y104.95 E.00733
G1 X114.775 Y105.059 E.00468
G1 X114.982 Y105.483 E.01478
G1 X115.085 Y105.883 E.01298
G1 X115.115 Y106.224 E.01071
G1 X115.088 Y106.561 E.01059
G1 X114.968 Y107.019 E.01487
G1 X114.799 Y107.367 E.01211
G1 X114.659 Y107.579 E.00798
G1 X114.425 Y107.848 E.01116
G1 X114.054 Y108.135 E.01474
G1 X113.826 Y108.257 E.00811
G1 X113.608 Y108.342 E.00733
G1 X113.138 Y108.442 E.01504
G1 X112.857 Y108.461 E.00883
G1 X112.43 Y108.454 E.01341
G1 X112.042 Y108.402 E.01228
G1 X111.71 Y108.308 E.0108
G1 X111.414 Y108.177 E.01015
G1 X111.17 Y108.011 E.00926
G1 X110.927 Y107.717 E.01195
G1 X110.818 Y107.441 E.00932
G1 X110.781 Y107.136 E.00963
G1 X110.832 Y106.856 E.00892
G1 X110.96 Y106.598 E.00903
G1 X111.101 Y106.462 E.00615
G1 X111.333 Y106.332 E.00833
G1 X111.608 Y106.269 E.00886
G1 X111.814 Y106.269 E.00644
G1 X112.06 Y106.315 E.00785
G1 X112.234 Y106.386 E.00591
G1 X112.48 Y106.542 E.00913
G1 X112.723 Y106.73 E.00964
G1 X112.817 Y106.754 E.00304
G1 X112.991 Y106.698 E.00574
G1 X113.083 Y106.63 E.00358
G1 X113.139 Y106.561 E.00281
G1 X113.199 Y106.422 E.00473
G1 X113.213 Y106.274 E.00468
G1 X113.182 Y106.129 E.00466
G1 X113.084 Y105.947 E.00646
G1 X112.968 Y105.813 E.00558
G1 X112.838 Y105.709 E.00521
G1 X112.635 Y105.614 E.00704
G1 X112.156 Y105.526 E.01525
G1 X111.913 Y105.45 E.00799
G1 X111.763 Y105.368 E.00536
G1 X111.628 Y105.246 E.0057
G1 X111.549 Y105.111 E.0049
G1 X111.481 Y104.891 E.00722
G1 X111.466 Y104.71 E.00568
G1 X111.525 Y104.45 E.00837
G1 X111.566 Y104.326 E.00409
G1 X111.725 Y104.064 E.0096
G1 X111.949 Y103.922 E.00832
G1 X112.149 Y103.838 E.00681
G1 X112.667 Y103.697 E.01683
G1 X112.764 Y103.64 E.00352
G1 X112.839 Y103.573 E.00317
G1 X112.902 Y103.467 E.00384
G1 X112.918 Y103.395 E.00234
G1 X112.899 Y103.302 E.00296
G1 X112.822 Y103.205 E.00388
G1 X112.645 Y103.192 E.00557
G1 X112.473 Y103.241 E.0056
G1 X112.262 Y103.364 E.00768
G1 X111.782 Y103.571 E.01637
G1 X111.552 Y103.589 E.00726
G1 X111.43 Y103.565 E.00388
G1 X111.267 Y103.473 E.00587
G1 X111.102 Y103.319 E.00709
G1 X110.928 Y103.103 E.00867
G1 X110.868 Y102.885 E.00712
G1 X110.857 Y102.637 E.00776
G1 X110.89 Y102.417 E.00697
G1 X110.967 Y102.214 E.00681
G1 X111.036 Y102.093 E.00438
G1 X111.338 Y101.835 E.01246
G1 X111.639 Y101.667 E.0108
G1 X111.984 Y101.546 E.01144
G1 X112.365 Y101.476 E.01214
G1 X112.998 Y101.463 E.01986
G1 X113.408 Y101.514 E.01296
G1 X113.651 Y101.569 E.0078
G1 X113.976 Y101.699 E.011
G1 X114.183 Y101.82 E.00752
G1 X114.434 Y102.025 E.01016
G1 X114.632 Y102.276 E.01001
G1 X114.739 Y102.464 E.00678
G1 X114.84 Y102.763 E.00989
G1 X114.868 Y103.074 E.0098
G1 X114.864 Y103.323 E.00782
G1 X114.739 Y103.845 E.01682
G1 X114.61 Y104.023 E.00691
G1 X114.303 Y104.323 E.01346
G1 X114.069 Y104.466 E.00858
G1 X114.017 Y104.523 F10800
;WIPE_START
